X: 6011
T: Cantelya
R: hornpipe
M: 4/4
K: Gmajor
(A/B/c)|:"G"d2 d d2 (g/e)d3/2|B"D"A G2 "C"E2 GG|(A B) "Am"A2 GE G2|"G"D2 EG ABd2|
[1 ed B2 "Am"(c/B)AG3/2|B2 "D"A4 "^n/c"(A/B/c):|2 "G"ed B2 "C"(3cBA "D"(3FED|"G"G4 G2 "c"(3ABc||
[K:C]|:"C"c2 c(cd)e "G"g2|ag e"F"(f/e)d(c/ B)A|"G"(B/c)dG3/2 E "F"F2 F|(F/G)A"G"(B/A) B(B/c)d3/2|
[1 "G7"(f/e)f(f/e) d"G"g>ga:|2 "G"(f/e)f"G"(g/e) B "C"c3 "^D.C. al Coda"||O "C"c z7||

